X: 10
T: Devil's Dream, The
Z: jsdansereau93
S: https://thesession.org/tunes/259#setting46413
R: reel
M: 4/4
L: 1/8
K: Amaj
e2|:"A"agae agae|agae fedc|"Bm"dfBf dfBf|dfBf agfe|
"A"agae agae|agae fedc|"Bm"defg "A"afed|"E"c2 A2 "A"A2 e2:|
|:"A"ceAe ceAe|ceAe fedc|"Bm"dfBf dfBf|dfBf agfe|"A"
"A"ceAe ceAe|ceAe fedc|"Bm"defg "A"afed|1 "E"c2 A2 "A"A2 e2:|2 "E"c2 A2 "A"A4||

